X: 19
T: Gout for Ever
%R: reel
B: "Twenty Four Country Dances with Figures for the Year 1810", Button & Whitaker, p.10 #1
F: http://www.vwml.org/browse/browse-collections-dance-tune-books/browse-button1810
Z: 2014 John Chambers <jc:trillian.mit.edu>
M: C
L: 1/8
K: D
% - - - - - - - - - - - - - - - - - - - - - - - - - - - - -
|:\
dffg a2fa | gefd ecA2 |\
dffg a2fd | egce d2D2 :|
|:\
cdef agfe | fefg afed |\
cdef agfe | face d2D2 :|
% - - - - - - - - - - Dance description - - - - - - - - - -
%%begintext align
%%   Set and hands across, back again, down the
%% middle, up again, cast off & Allemande.
%%endtext

%%sep 1 1 500
%%sep 1 1 500
